X: 10797
T: Drag Her Round The Road
R: reel
M: 4/4
K: Eminor
|:GA|BEED E2GE|EB, (3B,B,B, DEGA|BEED E2DE|GABG A2:|
BA|G2GF GBdB|c2AB cded|B2BA GABc|dBGB AGED|
G2GF GBdB|c2AB cdef|gedB c2ge|dBGB A2||

